assets/flags-color/Tm.svg

<svg xmlns="http://www.w3.org/2000/svg" viewBox="0 0 512 512"><path fill="#73af00" d="M0 0h512v512H0z"/><path fill="#ff4b55" d="M44.789 0h134.74v512H44.789z"/><path fill="#f5f5f5" d="M166.053 58.386l-26.948 22.456H85.211L58.263 58.386V35.93l26.948-22.456h53.894l26.948 22.456z"/><g fill="#73af00"><path d="M166.053 247.018l-26.948 22.456H85.211l-26.948-22.456v-22.457l26.948-22.456h53.894l26.948 22.456zM166.053 152.702l-26.948 22.456H85.211l-26.948-22.456v-22.456l26.948-22.457h53.894l26.948 22.457zM166.053 341.333l-26.948 22.456H85.211l-26.948-22.456v-22.456l26.948-22.456h53.894l26.948 22.456z"/></g><g fill="#ffb400"><path d="M44.789 67.368l26.948 26.948-26.948 26.947zM179.526 121.263l-26.947-26.947 26.947-26.948zM44.789 161.684l26.948 26.948-26.948 26.947zM179.526 215.579l-26.947-26.947 26.947-26.948zM44.789 256l26.948 26.947-26.948 26.948zM179.526 309.895l-26.947-26.948L179.526 256zM44.789 350.316l26.948 26.947-26.948 26.948zM179.526 404.211l-26.947-26.948 26.947-26.947zM44.789 0h26.948L44.789 26.947zM179.526 26.947L152.579 0h26.947zM105.42 107.79h13.474v67.37H105.42z"/></g><path fill="#ff4b55" d="M85.21 134.74h53.894v13.474H85.21z"/><g fill="#ffb400"><path d="M152.579 119.017l-13.474-11.228v67.369l13.474-11.229zM71.737 163.929l13.474 11.228V107.79l-13.474 11.227zM112.158 13.474H85.211L58.263 35.929v11.229h53.895zM112.158 80.842h26.946l26.949-22.455V47.158h-53.895z"/></g><path fill="#ff4b55" d="M112.158 67.368L85.211 47.237l26.947-20.29 26.947 20.29z"/><g fill="#73af00"><path d="M112.158 67.368l26.947-20.131-.105-.079h-26.842zM112.158 47.158V26.947L85.316 47.158z"/></g><path fill="#ff4b55" d="M85.21 215.58h53.895V256H85.21z"/><path fill="#ffb400" d="M139.1 229.05h13.474v13.474H139.1z"/><path fill="#f5f5f5" d="M105.42 229.05h13.474v13.474H105.42z"/><path fill="#ff4b55" d="M105.42 309.89h13.474v13.474H105.42z"/><g fill="#ffb400"><path d="M125.63 323.37h13.474v13.474H125.63zM85.21 323.37h13.474v13.474H85.21z"/></g><path fill="#ff4b55" d="M105.42 336.84h13.474v13.474H105.42z"/><path fill="#ffb400" d="M71.74 229.05h13.474v13.474H71.74z"/><path fill="#f5f5f5" d="M166.053 435.649l-26.948 22.456H85.211l-26.948-22.456v-22.456l26.948-22.456h53.894l26.948 22.456z"/><g fill="#ffb400"><path d="M112.158 390.737H85.211l-26.948 22.455v11.229h53.895zM112.158 458.105h26.946l26.949-22.455v-11.229h-53.895z"/></g><path fill="#ff4b55" d="M139.105 431.158l-26.947 13.474-26.947-13.474v-13.474l26.947-13.473 26.947 13.473z"/><g fill="#f5f5f5"><path d="M364.384 73.366c-1.435-.705-2.733 1.162-1.57 2.259 15.248 14.389 24.884 34.595 24.884 57.134 0 44.274-35.587 79.795-79.346 79.795a77.604 77.604 0 01-23.195-3.553c-1.521-.475-2.504 1.565-1.195 2.474 12.793 8.894 28.215 14.209 45.047 14.209 44.339 0 80.569-35.524 80.569-80.44 0-31.568-18.528-58.771-45.194-71.878zM254.737 125.351l-3.297 9.324 7.754 6.138c1.004.795.419 2.41-.861 2.377l-9.886-.254-3.441 9.272c-.445 1.2-2.163 1.143-2.527-.085l-2.813-9.481-9.881-.407c-1.279-.053-1.755-1.704-.7-2.429l8.148-5.605-2.666-9.523c-.345-1.233 1.078-2.196 2.094-1.417l7.849 6.017 8.233-5.478c1.066-.711 2.421.344 1.994 1.551zM294.78 145.575l-3.297 9.324 7.754 6.138c1.004.795.419 2.41-.861 2.377l-9.886-.254-3.441 9.272c-.445 1.2-2.163 1.143-2.527-.085l-2.813-9.481-9.881-.407c-1.279-.053-1.755-1.704-.7-2.429l8.148-5.605-2.666-9.523c-.345-1.233 1.078-2.196 2.094-1.417l7.849 6.017 8.233-5.478c1.065-.712 2.421.344 1.994 1.551zM294.375 103.914l-3.297 9.324 7.754 6.138c1.004.795.419 2.41-.861 2.377l-9.886-.254-3.441 9.272c-.445 1.2-2.163 1.143-2.527-.085l-2.813-9.481-9.881-.407c-1.279-.053-1.755-1.704-.7-2.429l8.148-5.605-2.666-9.523c-.345-1.233 1.078-2.196 2.094-1.417l7.849 6.017 8.233-5.478c1.066-.712 2.421.344 1.994 1.551zM295.739 63.703l-3.297 9.324 7.754 6.138c1.004.795.419 2.41-.861 2.377l-9.886-.254-3.441 9.272c-.445 1.2-2.163 1.143-2.527-.085l-2.813-9.481-9.881-.407c-1.279-.053-1.755-1.704-.7-2.429l8.148-5.605-2.666-9.523c-.345-1.233 1.078-2.196 2.094-1.417l7.849 6.017 8.233-5.478c1.066-.712 2.421.344 1.994 1.551zM334.973 83.927l-3.297 9.324 7.754 6.138c1.004.795.419 2.41-.861 2.377l-9.886-.254-3.441 9.272c-.445 1.2-2.163 1.143-2.527-.085l-2.813-9.481-9.881-.407c-1.279-.053-1.755-1.704-.7-2.429l8.148-5.605-2.666-9.523c-.345-1.233 1.078-2.196 2.094-1.417l7.849 6.017 8.233-5.478c1.065-.712 2.421.344 1.994 1.551z"/></g></svg>

<svg xmlns="http://www.w3.org/2000/svg" x="0" y="0" enable-background="new 0 0 512 512" version="1.1" viewBox="0 0 512 512" xml:space="preserve"><path fill="#73AF00" d="M0 0H512V512H0z"/><path fill="#FF4B55" d="M44.789 0H179.529V512H44.789z"/><path fill="#F5F5F5" d="M166.053 58.386 139.105 80.842 85.211 80.842 58.263 58.386 58.263 35.93 85.211 13.474 139.105 13.474 166.053 35.93z"/><g fill="#73AF00"><path d="M166.053 247.018 139.105 269.474 85.211 269.474 58.263 247.018 58.263 224.561 85.211 202.105 139.105 202.105 166.053 224.561z"/><path d="M166.053 152.702 139.105 175.158 85.211 175.158 58.263 152.702 58.263 130.246 85.211 107.789 139.105 107.789 166.053 130.246z"/><path d="M166.053 341.333 139.105 363.789 85.211 363.789 58.263 341.333 58.263 318.877 85.211 296.421 139.105 296.421 166.053 318.877z"/></g><g fill="#FFB400"><path d="M44.789 67.368 71.737 94.316 44.789 121.263z"/><path d="M179.526 121.263 152.579 94.316 179.526 67.368z"/><path d="M44.789 161.684 71.737 188.632 44.789 215.579z"/><path d="M179.526 215.579 152.579 188.632 179.526 161.684z"/><path d="M44.789 256 71.737 282.947 44.789 309.895z"/><path d="M179.526 309.895 152.579 282.947 179.526 256z"/><path d="M44.789 350.316 71.737 377.263 44.789 404.211z"/><path d="M179.526 404.211 152.579 377.263 179.526 350.316z"/><path d="M44.789 0 71.737 0 44.789 26.947z"/><path d="M179.526 26.947 152.579 0 179.526 0z"/><path d="M105.42 107.79H118.894V175.16000000000003H105.42z"/></g><path fill="#FF4B55" d="M85.21 134.74H139.10399999999998V148.214H85.21z"/><g fill="#FFB400"><path d="M152.579 119.017 139.105 107.789 139.105 175.158 152.579 163.929z"/><path d="M71.737 163.929 85.211 175.157 85.211 107.79 71.737 119.017z"/><path d="M112.158 13.474 85.211 13.474 58.263 35.929 58.263 47.158 112.158 47.158z"/><path d="M112.158 80.842 139.104 80.842 166.053 58.387 166.053 47.158 112.158 47.158z"/></g><path fill="#FF4B55" d="M112.158 67.368 85.211 47.237 112.158 26.947 139.105 47.237z"/><g fill="#73AF00"><path d="M112.158 67.368 139.105 47.237 139 47.158 112.158 47.158z"/><path d="M112.158 47.158 112.158 26.947 85.316 47.158z"/></g><path fill="#FF4B55" d="M85.21 215.58H139.105V256H85.21z"/><path fill="#FFB400" d="M139.1 229.05H152.57399999999998V242.524H139.1z"/><path fill="#F5F5F5" d="M105.42 229.05H118.894V242.524H105.42z"/><path fill="#FF4B55" d="M105.42 309.89H118.894V323.364H105.42z"/><g fill="#FFB400"><path d="M125.63 323.37H139.10399999999998V336.844H125.63z"/><path d="M85.21 323.37H98.684V336.844H85.21z"/></g><path fill="#FF4B55" d="M105.42 336.84H118.894V350.31399999999996H105.42z"/><path fill="#FFB400" d="M71.74 229.05H85.214V242.524H71.74z"/><path fill="#F5F5F5" d="M166.053 435.649 139.105 458.105 85.211 458.105 58.263 435.649 58.263 413.193 85.211 390.737 139.105 390.737 166.053 413.193z"/><g fill="#FFB400"><path d="M112.158 390.737 85.211 390.737 58.263 413.192 58.263 424.421 112.158 424.421z"/><path d="M112.158 458.105 139.104 458.105 166.053 435.65 166.053 424.421 112.158 424.421z"/></g><path fill="#FF4B55" d="M139.105 431.158 112.158 444.632 85.211 431.158 85.211 417.684 112.158 404.211 139.105 417.684z"/><g fill="#F5F5F5"><path d="M364.384 73.366c-1.435-.705-2.733 1.162-1.57 2.259 15.248 14.389 24.884 34.595 24.884 57.134 0 44.274-35.587 79.795-79.346 79.795a77.604 77.604 0 0 1-23.195-3.553c-1.521-.475-2.504 1.565-1.195 2.474 12.793 8.894 28.215 14.209 45.047 14.209 44.339 0 80.569-35.524 80.569-80.44 0-31.568-18.528-58.771-45.194-71.878zM254.737 125.351l-3.297 9.324 7.754 6.138c1.004.795.419 2.41-.861 2.377l-9.886-.254-3.441 9.272c-.445 1.2-2.163 1.143-2.527-.085l-2.813-9.481-9.881-.407c-1.279-.053-1.755-1.704-.7-2.429l8.148-5.605-2.666-9.523c-.345-1.233 1.078-2.196 2.094-1.417l7.849 6.017 8.233-5.478c1.066-.711 2.421.344 1.994 1.551zM294.78 145.575l-3.297 9.324 7.754 6.138c1.004.795.419 2.41-.861 2.377l-9.886-.254-3.441 9.272c-.445 1.2-2.163 1.143-2.527-.085l-2.813-9.481-9.881-.407c-1.279-.053-1.755-1.704-.7-2.429l8.148-5.605-2.666-9.523c-.345-1.233 1.078-2.196 2.094-1.417l7.849 6.017 8.233-5.478c1.065-.712 2.421.344 1.994 1.551zM294.375 103.914l-3.297 9.324 7.754 6.138c1.004.795.419 2.41-.861 2.377l-9.886-.254-3.441 9.272c-.445 1.2-2.163 1.143-2.527-.085l-2.813-9.481-9.881-.407c-1.279-.053-1.755-1.704-.7-2.429l8.148-5.605-2.666-9.523c-.345-1.233 1.078-2.196 2.094-1.417l7.849 6.017 8.233-5.478c1.066-.712 2.421.344 1.994 1.551zM295.739 63.703l-3.297 9.324 7.754 6.138c1.004.795.419 2.41-.861 2.377l-9.886-.254-3.441 9.272c-.445 1.2-2.163 1.143-2.527-.085l-2.813-9.481-9.881-.407c-1.279-.053-1.755-1.704-.7-2.429l8.148-5.605-2.666-9.523c-.345-1.233 1.078-2.196 2.094-1.417l7.849 6.017 8.233-5.478c1.066-.712 2.421.344 1.994 1.551zM334.973 83.927l-3.297 9.324 7.754 6.138c1.004.795.419 2.41-.861 2.377l-9.886-.254-3.441 9.272c-.445 1.2-2.163 1.143-2.527-.085l-2.813-9.481-9.881-.407c-1.279-.053-1.755-1.704-.7-2.429l8.148-5.605-2.666-9.523c-.345-1.233 1.078-2.196 2.094-1.417l7.849 6.017 8.233-5.478c1.065-.712 2.421.344 1.994 1.551z"/></g></svg>
